assets/Cocktail glass/Flat/cocktail_glass_flat.svg

<svg width="32" height="32" viewBox="0 0 32 32" fill="none" xmlns="http://www.w3.org/2000/svg">
<path d="M27.8307 6.91003C28.3007 6.37003 27.9107 5.53003 27.1907 5.53003H4.8407C4.1207 5.53003 3.7407 6.37003 4.2007 6.91003L15.0107 19.53V26.85H11.7907C10.8107 26.85 10.0207 27.64 10.0207 28.62V29.53H22.0207V28.62C22.0207 27.64 21.2307 26.85 20.2507 26.85H17.0207V19.53L27.8307 6.91003Z" fill="#AEDDFF"/>
<path d="M14.4407 17.6L8.00072 9.73003C7.61072 9.25003 7.95072 8.53003 8.57072 8.53003H23.4607C24.0807 8.53003 24.4207 9.25003 24.0307 9.73003L17.6007 17.6C16.7807 18.6 15.2607 18.6 14.4407 17.6Z" fill="#C3EF3C"/>
<path d="M17.7693 11.6528L17.4103 11.1804L16.816 11.3502L15.5469 15.1205C15.4588 15.3822 15.5995 15.6658 15.8613 15.7539C16.123 15.842 16.4065 15.7013 16.4946 15.4395L17.7693 11.6528Z" fill="#F3AD61"/>
<path d="M20.9646 2.15952C21.0527 1.8978 20.912 1.61423 20.6503 1.52614C20.3885 1.43805 20.105 1.57879 20.0169 1.84051L18.2079 7.21469L18.5335 7.6127L19.1503 7.54982L20.9646 2.15952Z" fill="#E19747"/>
<path d="M17.9507 11.66C19.1823 11.66 20.1807 10.6616 20.1807 9.43001C20.1807 8.19842 19.1823 7.20001 17.9507 7.20001C16.7191 7.20001 15.7207 8.19842 15.7207 9.43001C15.7207 10.6616 16.7191 11.66 17.9507 11.66Z" fill="#44911B"/>
<path d="M18.2408 9.31001C18.0408 9.91001 17.4408 10.24 16.9008 10.06C16.3608 9.88001 16.0908 9.25001 16.2908 8.65001C16.4908 8.05001 17.0908 7.72001 17.6308 7.90001C18.1708 8.08001 18.4408 8.71001 18.2408 9.31001Z" fill="#FF822D"/>
</svg>

<svg xmlns="http://www.w3.org/2000/svg" width="32" height="32" fill="none"><path fill="#AEDDFF" d="M27.83 6.91c.47-.54.08-1.38-.64-1.38H4.84c-.72 0-1.1.84-.64 1.38l10.81 12.62v7.32h-3.22c-.98 0-1.77.79-1.77 1.77v.91h12v-.91c0-.98-.79-1.77-1.77-1.77h-3.23v-7.32L27.83 6.91Z"/><path fill="#C3EF3C" d="M14.44 17.6 8 9.73a.736.736 0 0 1 .57-1.2h14.89c.62 0 .96.72.57 1.2L17.6 17.6c-.82 1-2.34 1-3.16 0Z"/><path fill="#F3AD61" d="m17.77 11.653-.36-.473-.594.17-1.27 3.77a.5.5 0 1 0 .949.32l1.274-3.787Z"/><path fill="#E19747" d="M20.965 2.16a.5.5 0 1 0-.948-.32l-1.81 5.375.326.398.617-.063 1.815-5.39Z"/><path fill="#44911B" d="M17.95 11.66a2.23 2.23 0 1 0 0-4.46 2.23 2.23 0 0 0 0 4.46Z"/><path fill="#FF822D" d="M18.24 9.31c-.2.6-.8.93-1.34.75-.54-.18-.81-.81-.61-1.41.2-.6.8-.93 1.34-.75.54.18.81.81.61 1.41Z"/></svg>
